ImgSvg/logo.svg

<svg width="825" height="645" viewBox="0 0 825 645" fill="none" xmlns="http://www.w3.org/2000/svg">
<path d="M102.725 399.774H173.019V447.504H20.0605L97.3847 313.762H24.6681V265.784H180.049L102.725 399.774Z" fill="white"/>
<path d="M204.28 265.796H252.033V447.516H204.28V265.796Z" fill="white"/>
<path d="M464.382 265.796L381.482 348.904L479.894 447.516H412.506L347.788 383.065L336.399 394.697V447.516H288.646V265.796H336.399V327.093L397.49 265.796H464.382Z" fill="white"/>
<path d="M512.608 304.067C502.188 304.067 493.457 295.825 493.457 285.41C493.457 274.995 502.188 265.784 512.608 265.784C523.028 265.784 531.759 274.995 531.759 285.41C531.759 285.41 532.964 306.736 512.608 323.929V304.067Z" fill="white"/>
<path d="M147.548 645L135.072 632.766C121.876 640.678 106.281 645 89.9772 645C40.2984 645 0 604.721 0 555.079C0 505.436 40.2984 465.158 89.9654 465.158C139.621 465.158 179.931 505.436 179.931 555.079C179.931 571.386 175.607 586.489 167.939 599.679L213.519 645H147.548ZM89.9654 598.002C93.0844 598.002 96.2033 597.766 99.086 597.046L77.017 574.988L110.369 541.901L131.965 563.475C132.438 560.841 132.686 558.196 132.686 555.327C132.686 531.344 113.972 512.639 89.989 512.639C65.9943 512.639 47.2806 531.344 47.2806 555.327C47.257 579.298 65.9707 598.002 89.9654 598.002Z" fill="white"/>
<path d="M269.412 573.299C269.412 586.253 279.962 596.798 292.922 596.798C305.871 596.798 316.432 586.253 316.432 573.299V465.158H363.937V574.02C363.937 613.578 332.027 645 292.922 645C253.333 645 221.907 613.59 221.907 574.02V465.158H269.412V573.299Z" fill="white"/>
<path d="M399.912 465.158H511.71V504.244H447.169V533.493H504.267V573.299H447.169V606.386H511.698V644.988H399.912V465.158Z" fill="white"/>
<path d="M611.741 520.315C611.741 512.887 605.503 506.652 598.072 506.652C590.641 506.652 584.639 512.887 584.639 520.315C584.639 527.742 590.629 533.741 598.06 533.741C615.569 533.741 631.412 542.137 641.489 555.079C649.169 564.667 653.481 576.665 653.481 589.843C653.481 620.533 628.765 644.988 598.06 644.988C567.355 644.988 542.64 620.769 542.64 589.123H584.627C584.627 596.798 590.629 602.785 598.06 602.785C605.491 602.785 611.729 596.786 611.729 589.359C611.729 581.931 605.491 575.696 598.06 575.696C567.355 575.696 542.888 551.241 542.888 520.551C542.888 489.861 567.355 465.158 598.06 465.158C628.765 465.158 653.481 489.613 653.481 520.303H611.741V520.315Z" fill="white"/>
<path d="M683.217 464.921H825V511.919H777.259V645H730.002V511.919H683.217V464.921Z" fill="white"/>
<path d="M416.866 64.7574C594.587 64.7574 739.17 209.269 739.17 386.903C739.17 406.8 737.339 426.273 733.877 445.178H799.611C802.482 426.06 803.959 406.588 803.959 386.903C803.959 283.556 763.696 186.396 690.578 113.326C617.46 40.2431 520.264 0 416.866 0C313.467 0 216.26 40.2431 143.153 113.326C103.422 153.037 73.4257 199.858 54.2866 250.917H124.735C176.115 141.064 287.736 64.7574 416.866 64.7574Z" fill="#57CEE2"/>
<path d="M417.669 127.885C560.113 127.885 675.999 243.714 675.999 386.088C675.999 406.411 673.624 426.19 669.17 445.178H735.354C738.91 426.013 740.788 406.269 740.788 386.088C740.788 208.017 595.839 63.1397 417.681 63.1397C287.771 63.1397 175.548 140.166 124.274 250.917H197.676C243.196 177.162 324.785 127.885 417.669 127.885Z" fill="#F9075F"/>
<path d="M417.669 192.643C524.387 192.643 611.21 279.423 611.21 386.088C611.21 406.682 607.961 426.544 601.959 445.178H669.159C673.624 426.19 675.987 406.411 675.987 386.088C675.987 243.714 560.101 127.885 417.657 127.885C324.762 127.885 243.173 177.15 197.652 250.917H279.348C314.531 214.984 363.536 192.643 417.669 192.643Z" fill="#FFAC00"/>
<path d="M108.573 188.557C118.485 170.431 130.795 153.769 144.134 138.005C157.543 122.3 172.181 107.587 188.023 94.2195C195.986 87.595 204.138 81.1712 212.668 75.2433C221.151 69.2683 229.87 63.6002 238.884 58.4163C256.83 47.895 275.744 39.0269 295.356 31.8828C314.967 24.6324 335.335 19.5548 355.963 16.0241C358.538 15.5399 361.137 15.2565 363.725 14.8786C366.324 14.5598 368.899 14.0993 371.51 13.8867C376.72 13.379 381.919 12.8122 387.141 12.576C392.363 12.2217 397.584 12.1391 402.806 12.0092C408.028 12.0682 413.25 12.0328 418.472 12.269C439.336 13.0956 460.07 15.7406 480.402 20.0625C490.574 22.1999 500.616 24.845 510.529 27.8679C520.417 30.9853 530.211 34.3862 539.627 38.7553L539.178 39.9715C499.27 30.3477 458.64 25.3763 418.2 25.2228C408.087 25.1284 397.998 25.4354 387.92 26.0376C377.843 26.5454 367.801 27.5137 357.794 28.7181L350.292 29.71C347.787 30.017 345.318 30.513 342.825 30.9027C337.828 31.6584 332.901 32.7212 327.951 33.7367C325.47 34.1972 323.048 34.9057 320.579 35.4725C318.134 36.0984 315.665 36.6298 313.243 37.3265C308.411 38.7553 303.496 39.9952 298.735 41.672C279.537 47.9895 260.823 56.031 243.007 65.7494C234.052 70.5318 225.356 75.8101 216.862 81.3955C208.332 86.9337 200.133 92.9796 192.111 99.2381C176.02 111.731 161.004 125.654 147.123 140.638C140.188 148.149 133.572 155.954 127.275 164.019C121.013 172.096 114.964 180.409 109.707 189.159L108.573 188.557Z" fill="white"/>
<path d="M182.317 194.674C188.508 186.065 195.443 178.083 202.709 170.384C209.975 162.685 217.63 155.34 225.605 148.326C233.615 141.359 241.944 134.722 250.592 128.523C259.275 122.359 268.254 116.585 277.481 111.2C282.124 108.555 286.743 105.863 291.516 103.43C296.207 100.844 301.062 98.565 305.882 96.1797C315.641 91.7043 325.754 87.9492 336.151 85.1978C346.559 82.5055 357.133 80.439 367.813 79.4235C378.457 78.2072 389.22 78.16 399.853 79.0102L399.959 80.2973C389.669 83.1431 379.497 85.4458 369.514 88.3743C359.495 91.0902 349.678 94.3257 339.919 97.5849C335.064 99.2853 330.184 100.915 325.376 102.722C320.509 104.375 315.724 106.264 310.868 107.988C301.216 111.601 291.705 115.687 282.443 120.304C273.228 125.028 264.202 130.141 255.412 135.679C246.575 141.146 238.01 147.074 229.704 153.368C213.034 165.861 197.298 179.842 183.357 195.465L182.317 194.674Z" fill="white"/>
<path d="M270.416 194.591C277.481 187.057 285.337 180.35 293.536 174.021C297.683 170.927 301.901 167.892 306.26 165.058C308.422 163.606 310.667 162.283 312.9 160.961C315.145 159.626 317.366 158.257 319.693 157.064C321.997 155.824 324.277 154.537 326.581 153.262L333.622 149.66C335.973 148.444 338.466 147.535 340.947 146.649C343.452 145.799 345.956 144.937 348.579 144.476C351.19 143.968 353.801 143.484 356.424 143.095C359.07 142.776 361.752 142.681 364.41 142.587C365.745 142.551 367.068 142.528 368.391 142.54C369.726 142.599 371.073 142.764 372.408 142.906C375.09 143.26 377.725 143.591 380.347 144.264L380.454 145.551C370.683 150.215 361.421 153.167 352.241 156.899C349.914 157.654 347.657 158.646 345.318 159.414C344.16 159.815 342.979 160.17 341.798 160.524C340.604 160.831 339.435 161.209 338.265 161.61L331.141 163.783C328.79 164.586 326.475 165.507 324.147 166.416C321.808 167.29 319.551 168.353 317.271 169.38C314.991 170.407 312.699 171.411 310.478 172.568C305.93 174.706 301.476 177.044 297.045 179.465C288.196 184.318 279.548 189.679 271.255 195.571L270.416 194.591Z" fill="white"/>
</svg>

<svg xmlns="http://www.w3.org/2000/svg" viewBox="0 0 825 645">
  <g id="Calque_2" data-name="Calque 2">
    <g id="Calque_1-2" data-name="Calque 1">
      <path d="M102.72,399.77H173V447.5h-153L97.38,313.76H24.67v-48H180.05Z" fill="#fff"/>
      <path d="M204.28,265.8H252V447.52H204.28Z" fill="#fff"/>
      <path d="M464.38,265.8l-82.9,83.1,98.41,98.62H412.51l-64.72-64.45L336.4,394.7v52.82H288.65V265.8H336.4v61.29l61.09-61.29Z" fill="#fff"/>
      <path d="M512.61,304.07c-10.42,0-19.15-8.24-19.15-18.66s8.73-19.63,19.15-19.63,19.15,9.21,19.15,19.63c0,0,1.2,21.33-19.15,38.52Z" fill="#fff"/>
      <path d="M147.55,645l-12.48-12.23A87.68,87.68,0,0,1,90,645a89.92,89.92,0,1,1,90-89.92,88,88,0,0,1-12,44.6L213.52,645ZM90,598a38.06,38.06,0,0,0,9.12-1L77,575l33.35-33.09L132,563.47a44.65,44.65,0,0,0,.73-8.14A42.19,42.19,0,0,0,90,512.64,42.68,42.68,0,1,0,90,598Z" fill="#fff"/>
      <path d="M269.41,573.3a23.51,23.51,0,0,0,47,0V465.16h47.51V574a71,71,0,0,1-142,0V465.16h47.5Z" fill="#fff"/>
      <path d="M399.91,465.16h111.8v39.08H447.17v29.25h57.1V573.3h-57.1v33.09H511.7V645H399.91Z" fill="#fff"/>
      <path d="M611.74,520.32a13.83,13.83,0,0,0-13.67-13.67,13.62,13.62,0,0,0-13.43,13.67,13.4,13.4,0,0,0,13.42,13.42,55.63,55.63,0,0,1,0,111.25c-30.71,0-55.42-24.22-55.42-55.87h42a13.45,13.45,0,0,0,13.43,13.66,13.61,13.61,0,0,0,13.67-13.42,13.82,13.82,0,0,0-13.67-13.66,55.27,55.27,0,1,1,55.42-55.4H611.74Z" fill="#fff"/>
      <path d="M683.22,464.92H825v47H777.26V645H730V511.92H683.22Z" fill="#fff"/>
      <path d="M416.87,64.76c177.72,0,322.3,144.51,322.3,322.14a323.53,323.53,0,0,1-5.29,58.28h65.73A392.52,392.52,0,0,0,804,386.9,387,387,0,0,0,416.87,0C313.47,0,216.26,40.24,143.15,113.33A385.65,385.65,0,0,0,54.29,250.92h70.45C176.12,141.06,287.74,64.76,416.87,64.76Z" fill="#57cee2"/>
      <path d="M417.67,127.89C560.11,127.89,676,243.71,676,386.09a258.73,258.73,0,0,1-6.83,59.09h66.18a323.33,323.33,0,0,0,5.44-59.09C740.79,208,595.84,63.14,417.68,63.14c-129.91,0-242.13,77-293.41,187.78h73.41C243.2,177.16,324.79,127.89,417.67,127.89Z" fill="#f9075f"/>
      <path d="M417.67,192.64c106.72,0,193.54,86.78,193.54,193.45A192.55,192.55,0,0,1,602,445.18h67.2A258.17,258.17,0,0,0,676,386.09c0-142.38-115.89-258.2-258.33-258.2-92.9,0-174.49,49.26-220,123h81.7A193.06,193.06,0,0,1,417.67,192.64Z" fill="#ffac00"/>
      <path d="M108.57,188.56c9.92-18.13,22.22-34.79,35.56-50.55A380.52,380.52,0,0,1,188,94.22c8-6.62,16.12-13,24.65-19s17.2-11.64,26.21-16.82a345.92,345.92,0,0,1,56.48-26.54A339.83,339.83,0,0,1,356,16c2.58-.48,5.18-.76,7.77-1.14s5.17-.78,7.78-1c5.21-.51,10.41-1.08,15.63-1.31s10.44-.44,15.67-.57c5.22.06,10.44,0,15.66.26a368.55,368.55,0,0,1,61.93,7.79c10.17,2.14,20.22,4.78,30.13,7.81a241.22,241.22,0,0,1,29.1,10.89L539.18,40a525.45,525.45,0,0,0-121-14.75c-10.11-.09-20.2.22-30.28.82s-20.12,1.47-30.13,2.68l-7.5,1c-2.5.31-5,.8-7.46,1.19-5,.76-9.93,1.82-14.88,2.84-2.48.46-4.9,1.17-7.37,1.73s-4.91,1.16-7.34,1.86c-4.83,1.43-9.74,2.67-14.51,4.34A335.48,335.48,0,0,0,243,65.75c-9,4.78-17.65,10.06-26.15,15.65S200.13,93,192.11,99.24a374.12,374.12,0,0,0-45,41.4q-10.4,11.27-19.84,23.38a257.29,257.29,0,0,0-17.57,25.14Z" fill="#fff"/>
      <path d="M182.32,194.67a238.74,238.74,0,0,1,20.39-24.29q10.9-11.55,22.89-22c8-7,16.34-13.61,25-19.81s17.66-11.94,26.89-17.32c4.64-2.64,9.26-5.34,14-7.77,4.69-2.59,9.54-4.86,14.36-7.25a187.71,187.71,0,0,1,30.27-11,204.45,204.45,0,0,1,31.66-5.78,166.56,166.56,0,0,1,32-.41L400,80.3c-10.29,2.84-20.46,5.15-30.45,8.07-10,2.72-19.83,6-29.59,9.21-4.86,1.71-9.74,3.34-14.54,5.14s-9.66,3.54-14.51,5.27a298.47,298.47,0,0,0-28.43,12.31q-13.81,7.1-27,15.38T229.7,153.37a315.37,315.37,0,0,0-46.34,42.09Z" fill="#fff"/>
      <path d="M270.42,194.59A193.27,193.27,0,0,1,293.54,174c4.14-3.09,8.36-6.13,12.72-9,2.16-1.45,4.41-2.78,6.64-4.1s4.47-2.7,6.79-3.9,4.59-2.52,6.89-3.8l7-3.6a59.08,59.08,0,0,1,7.33-3,51.49,51.49,0,0,1,7.63-2.17c2.61-.51,5.22-1,7.84-1.38s5.33-.42,8-.51c1.33,0,2.66-.06,4-.05s2.68.22,4,.37a66.48,66.48,0,0,1,7.94,1.35l.1,1.29c-9.77,4.66-19,7.62-28.21,11.35-2.33.75-4.58,1.75-6.92,2.51-1.16.41-2.34.76-3.52,1.11s-2.37.69-3.53,1.09l-7.13,2.17c-2.35.81-4.66,1.73-7,2.64s-4.6,1.93-6.88,3-4.57,2-6.79,3.19c-4.55,2.14-9,4.47-13.43,6.89a263.6,263.6,0,0,0-25.79,16.11Z" fill="#fff"/>
    </g>
  </g>
</svg>
